public/assets/img/components/logo-laravel.svg

<svg xmlns="http://www.w3.org/2000/svg" width="240" height="64" viewBox="0 0 240 64">
  <defs>
    <linearGradient id="a" x1="50%" x2="50%" y1="0%" y2="100%">
      <stop stop-color="#EE210F" offset="0%"/>
      <stop stop-color="#E65822" offset="100%"/>
    </linearGradient>
  </defs>
  <g fill="none" fill-rule="evenodd">
    <path fill="#2E2E2E" d="M113.558594,40.7636719 L124.755859,40.7636719 L124.755859,45 L108.285156,45 L108.285156,19.40625 L113.558594,19.40625 L113.558594,40.7636719 Z M138.466797,45 C138.232421,44.5429665 138.062501,43.9746128 137.957031,43.2949219 C136.726556,44.6660225 135.126963,45.3515625 133.158203,45.3515625 C131.294913,45.3515625 129.750983,44.8125054 128.526367,43.734375 C127.301752,42.6562446 126.689453,41.2968832 126.689453,39.65625 C126.689453,37.6406149 127.436516,36.0937554 128.930664,35.015625 C130.424812,33.9374946 132.58397,33.3925782 135.408203,33.3808594 L137.746094,33.3808594 L137.746094,32.2910156 C137.746094,31.412105 137.52051,30.708987 137.069336,30.1816406 C136.618162,29.6542942 135.906255,29.390625 134.933594,29.390625 C134.078121,29.390625 133.407229,29.5957011 132.920898,30.0058594 C132.434568,30.4160177 132.191406,30.9785121 132.191406,31.6933594 L127.111328,31.6933594 C127.111328,30.5917914 127.451168,29.5722703 128.130859,28.6347656 C128.81055,27.6972609 129.771478,26.9619167 131.013672,26.4287109 C132.255866,25.8955051 133.650383,25.6289062 135.197266,25.6289062 C137.541027,25.6289062 139.40136,26.2177675 140.77832,27.3955078 C142.15528,28.5732481 142.84375,30.228505 142.84375,32.3613281 L142.84375,40.6054688 C142.855469,42.4101653 143.107419,43.775386 143.599609,44.7011719 L143.599609,45 L138.466797,45 Z M134.265625,41.4667969 C135.015629,41.4667969 135.707028,41.2998064 136.339844,40.9658203 C136.972659,40.6318343 137.441405,40.1835966 137.746094,39.6210938 L137.746094,36.3515625 L135.847656,36.3515625 C133.304675,36.3515625 131.951173,37.23046 131.787109,38.9882812 L131.769531,39.2871094 C131.769531,39.919925 131.992185,40.4414042 132.4375,40.8515625 C132.882815,41.2617208 133.492184,41.4667969 134.265625,41.4667969 Z M157.433594,30.7441406 C156.742184,30.6503902 156.132815,30.6035156 155.605469,30.6035156 C153.683584,30.6035156 152.423831,31.2538997 151.826172,32.5546875 L151.826172,45 L146.746094,45 L146.746094,25.9804688 L151.544922,25.9804688 L151.685547,28.2480469 C152.705083,26.5019444 154.117178,25.6289062 155.921875,25.6289062 C156.484378,25.6289062 157.011716,25.7050774 157.503906,25.8574219 L157.433594,30.7441406 Z M170.371094,45 C170.136718,44.5429665 169.966797,43.9746128 169.861328,43.2949219 C168.630853,44.6660225 167.03126,45.3515625 165.0625,45.3515625 C163.199209,45.3515625 161.65528,44.8125054 160.430664,43.734375 C159.206049,42.6562446 158.59375,41.2968832 158.59375,39.65625 C158.59375,37.6406149 159.340813,36.0937554 160.834961,35.015625 C162.329109,33.9374946 164.488267,33.3925782 167.3125,33.3808594 L169.650391,33.3808594 L169.650391,32.2910156 C169.650391,31.412105 169.424807,30.708987 168.973633,30.1816406 C168.522459,29.6542942 167.810552,29.390625 166.837891,29.390625 C165.982418,29.390625 165.311526,29.5957011 164.825195,30.0058594 C164.338865,30.4160177 164.095703,30.9785121 164.095703,31.6933594 L159.015625,31.6933594 C159.015625,30.5917914 159.355465,29.5722703 160.035156,28.6347656 C160.714847,27.6972609 161.675775,26.9619167 162.917969,26.4287109 C164.160162,25.8955051 165.55468,25.6289062 167.101562,25.6289062 C169.445324,25.6289062 171.305657,26.2177675 172.682617,27.3955078 C174.059577,28.5732481 174.748047,30.228505 174.748047,32.3613281 L174.748047,40.6054688 C174.759766,42.4101653 175.011716,43.775386 175.503906,44.7011719 L175.503906,45 L170.371094,45 Z M166.169922,41.4667969 C166.919926,41.4667969 167.611325,41.2998064 168.244141,40.9658203 C168.876956,40.6318343 169.345702,40.1835966 169.650391,39.6210938 L169.650391,36.3515625 L167.751953,36.3515625 C165.208972,36.3515625 163.85547,37.23046 163.691406,38.9882812 L163.673828,39.2871094 C163.673828,39.919925 163.896482,40.4414042 164.341797,40.8515625 C164.787112,41.2617208 165.396481,41.4667969 166.169922,41.4667969 Z M185.505859,38.7949219 L189.039062,25.9804688 L194.347656,25.9804688 L187.931641,45 L183.080078,45 L176.664062,25.9804688 L181.972656,25.9804688 L185.505859,38.7949219 Z M205.105469,45.3515625 C202.316392,45.3515625 200.045907,44.4961023 198.293945,42.7851562 C196.541983,41.0742102 195.666016,38.7949361 195.666016,35.9472656 L195.666016,35.4550781 C195.666016,33.5449123 196.035153,31.8369216 196.773438,30.3310547 C197.511722,28.8251878 198.55761,27.6650431 199.911133,26.8505859 C201.264655,26.0361287 202.808585,25.6289062 204.542969,25.6289062 C207.144544,25.6289062 209.192375,26.4492105 210.686523,28.0898438 C212.180672,29.730477 212.927734,32.0566256 212.927734,35.0683594 L212.927734,37.1425781 L200.816406,37.1425781 C200.98047,38.3847718 201.475582,39.3808556 202.301758,40.1308594 C203.127934,40.8808631 204.173822,41.2558594 205.439453,41.2558594 C207.396494,41.2558594 208.925776,40.5468821 210.027344,39.1289062 L212.523438,41.9238281 C211.761715,43.0019585 210.730475,43.8427704 209.429688,44.4462891 C208.1289,45.0498077 206.687508,45.3515625 205.105469,45.3515625 Z M204.525391,29.7421875 C203.517573,29.7421875 202.700198,30.0820279 202.073242,30.7617188 C201.446286,31.4414096 201.044923,32.4140562 200.869141,33.6796875 L207.935547,33.6796875 L207.935547,33.2753906 C207.912109,32.150385 207.607425,31.2802765 207.021484,30.6650391 C206.435544,30.0498016 205.603521,29.7421875 204.525391,29.7421875 Z M221.171875,45 L216.074219,45 L216.074219,18 L221.171875,18 L221.171875,45 Z"/>
    <path fill="url(#a)" d="M80.3505432,28.9711964 C79.842517,29.0823104 71.5253473,31.1457549 71.5253473,31.1457549 L64.7229965,21.8127109 C64.5324644,21.5429389 64.3738064,21.2729888 64.8499585,21.2095968 C65.3261106,21.1460268 73.0560142,19.7490884 73.4052043,19.6698484 C73.7543943,19.5906085 74.0560404,19.4953424 74.4846485,20.0826085 C74.9130786,20.6698747 80.7948212,28.1141583 81.0170493,28.3997783 C81.2392773,28.6855764 80.8585693,28.8600824 80.3505432,28.9711964 M78.8984039,45.0534559 C79.1060305,45.3800314 79.313657,45.587836 78.6608621,45.8251998 C78.0080672,46.0625636 56.6398072,53.2742912 56.2243761,53.4523586 C55.808945,53.6304259 55.4825475,53.6897223 54.9483455,52.9181565 C54.4141434,52.1465907 47.462038,40.1151141 47.462038,40.1151141 L70.1136293,34.2211561 C70.7776425,34.0096121 70.9334514,34.0876056 71.2117707,34.4882571 C71.5921225,35.0359923 78.6907774,44.7268804 78.8984039,45.0534559 M42.2129686,38.1774564 C41.9366081,38.2433414 28.9238024,41.3509015 28.2295178,41.5097376 C27.5352332,41.6683956 27.5352332,41.5889776 27.4559932,41.3509015 C27.3765752,41.1128255 11.9857156,9.37737757 11.7720348,8.98064352 C11.5581759,8.58390947 11.5693941,8.26962059 11.7720348,8.26962059 C11.9744973,8.26962059 24.0601064,7.18928599 24.4876461,7.1668495 C24.9153639,7.14423495 24.8703128,7.23433703 25.0277244,7.50428713 C25.0277244,7.50428713 42.0740761,36.9279579 42.3716266,37.4436409 C42.6691772,37.9591459 42.8098504,38.0348245 42.2129686,38.1774564 M75.6750288,18.6858483 C74.4371046,17.1938219 73.8338124,17.463594 73.0718622,17.574708 C72.309912,17.685822 63.4215022,19.1778483 62.38978,19.3523543 C61.3580578,19.5270384 60.7073997,19.9397985 61.3422098,20.8285327 C61.9068613,21.6189736 67.7501414,29.9032009 69.0372122,31.727679 L45.8063677,37.2928179 L27.3309899,6.40472125 C26.5955718,5.3142368 26.44279,4.93317267 24.7689925,5.0093855 C23.0951594,5.08542025 10.2757348,6.15044107 9.36278352,6.2266539 C8.44965415,6.30286672 7.44749111,6.70921641 8.36044241,8.86489974 C9.27357178,11.0205831 23.8321802,42.3929516 24.2378176,43.3059029 C24.6436331,44.2188542 25.6986821,45.7000185 28.1689749,45.10652 C30.6998461,44.49842 39.4766077,42.2075835 44.2723175,40.9516745 C46.806394,45.5404701 51.9744427,54.8489408 52.9301301,56.1826652 C54.2061607,57.9633387 55.0843889,57.6688153 57.0433078,57.0753169 C58.5727283,56.6118075 80.9757376,48.5555065 81.9848453,48.1400753 C82.993953,47.7246442 83.6171887,47.4278059 82.9344785,46.4186983 C82.4325066,45.6768697 76.5226294,37.7595324 73.4271066,33.6175078 C75.5471764,33.0532123 83.0861919,31.0462152 83.8899879,30.8282608 C84.8264441,30.5743368 84.9535841,30.1140327 84.445558,29.5426145 C83.9377099,28.9711964 76.912953,20.1778746 75.6750288,18.6858483 Z"/>
  </g>
</svg>

<svg xmlns="http://www.w3.org/2000/svg" width="240" height="64" viewBox="0 0 240 64"><defs><linearGradient id="a" x1="50%" x2="50%" y1="0%" y2="100%"><stop stop-color="#EE210F" offset="0%"/><stop stop-color="#E65822" offset="100%"/></linearGradient></defs><g fill="none" fill-rule="evenodd"><path fill="#2E2E2E" d="M113.56 40.764h11.196V45h-16.47V19.406h5.273v21.358zM138.466 45c-.235-.457-.404-1.025-.51-1.705-1.23 1.37-2.83 2.057-4.8 2.057-1.862 0-3.406-.54-4.63-1.618-1.225-1.078-1.838-2.437-1.838-4.078 0-2.015.747-3.562 2.24-4.64 1.495-1.08 3.654-1.623 6.478-1.635h2.338v-1.09c0-.878-.225-1.58-.677-2.108-.452-.528-1.164-.79-2.136-.79-.856 0-1.527.204-2.013.614-.485.41-.73.973-.73 1.687h-5.08c0-1.1.34-2.12 1.02-3.058.68-.938 1.64-1.673 2.884-2.206 1.242-.534 2.636-.8 4.183-.8 2.344 0 4.204.588 5.58 1.766 1.378 1.177 2.067 2.833 2.067 4.965v8.245c.01 1.805.263 3.17.756 4.096v.3h-5.133zm-4.2-3.533c.75 0 1.44-.167 2.073-.5.633-.335 1.1-.783 1.406-1.346v-3.268h-1.898c-2.543 0-3.897.878-4.06 2.636l-.018.3c0 .632.222 1.153.667 1.564.446.41 1.055.615 1.83.615zm23.167-10.723c-.692-.094-1.3-.14-1.83-.14-1.92 0-3.18.65-3.778 1.95V45h-5.08V25.98h4.8l.14 2.268c1.02-1.746 2.43-2.62 4.236-2.62.562 0 1.09.077 1.582.23l-.07 4.886zM170.37 45c-.233-.457-.403-1.025-.51-1.705-1.23 1.37-2.83 2.057-4.798 2.057-1.863 0-3.407-.54-4.63-1.618-1.226-1.078-1.838-2.437-1.838-4.078 0-2.015.747-3.562 2.24-4.64 1.495-1.08 3.654-1.623 6.478-1.635h2.338v-1.09c0-.878-.225-1.58-.676-2.108-.452-.528-1.163-.79-2.136-.79-.856 0-1.526.204-2.013.614-.486.41-.73.973-.73 1.687h-5.08c0-1.1.34-2.12 1.02-3.058.68-.938 1.64-1.673 2.883-2.206 1.242-.534 2.637-.8 4.184-.8 2.343 0 4.204.588 5.58 1.766 1.378 1.177 2.066 2.833 2.066 4.965v8.245c.012 1.805.264 3.17.756 4.096v.3h-5.133zm-4.2-3.533c.75 0 1.44-.167 2.074-.5.633-.335 1.102-.783 1.406-1.346v-3.268h-1.898c-2.543 0-3.897.878-4.06 2.636l-.018.3c0 .632.222 1.153.668 1.564.445.41 1.054.615 1.828.615zm19.336-2.672l3.533-12.815h5.308L187.932 45h-4.852l-6.416-19.02h5.31l3.532 12.815zm19.6 6.557c-2.79 0-5.06-.856-6.812-2.567-1.752-1.71-2.628-3.99-2.628-6.838v-.492c0-1.91.37-3.618 1.107-5.124.74-1.505 1.785-2.665 3.138-3.48 1.355-.814 2.9-1.22 4.633-1.22 2.602 0 4.65.82 6.144 2.46 1.494 1.64 2.24 3.967 2.24 6.978v2.075h-12.11c.163 1.242.66 2.238 1.485 2.988.826.75 1.872 1.126 3.137 1.126 1.956 0 3.486-.71 4.587-2.127l2.496 2.794c-.76 1.078-1.793 1.92-3.093 2.522-1.3.604-2.742.906-4.325.906zm-.58-15.61c-1.008 0-1.826.34-2.453 1.02-.627.68-1.028 1.652-1.204 2.918h7.066v-.405c-.024-1.125-.33-1.995-.915-2.61-.584-.615-1.416-.923-2.495-.923zM221.17 45h-5.098V18h5.098v27z"/><path fill="url(#a)" d="M80.35 28.97c-.507.112-8.825 2.176-8.825 2.176l-6.802-9.333c-.19-.27-.35-.54.127-.603.476-.064 8.206-1.46 8.555-1.54.35-.08.65-.175 1.08.413.428.587 6.31 8.03 6.532 8.317.222.286-.158.46-.666.57M78.9 45.054c.208.327.416.535-.237.772-.652.238-22.02 7.45-22.436 7.627-.415.178-.74.238-1.276-.534-.534-.77-7.486-12.803-7.486-12.803l22.652-5.894c.664-.21.82-.132 1.098.268.38.548 7.48 10.24 7.686 10.565m-36.685-6.876c-.276.066-13.29 3.174-13.983 3.333-.695.158-.695.08-.774-.16-.08-.237-15.47-31.973-15.684-32.37-.214-.396-.203-.71 0-.71.202 0 12.288-1.08 12.716-1.103.427-.023.382.067.54.337l17.344 29.94c.297.515.438.59-.16.733m33.463-19.49c-1.238-1.493-1.84-1.223-2.603-1.112-.762.11-9.65 1.603-10.682 1.777-1.032.175-1.683.588-1.048 1.477.565.79 6.408 9.073 7.695 10.898l-23.23 5.565L27.33 6.405c-.734-1.09-.887-1.472-2.56-1.396-1.675.075-14.494 1.14-15.407 1.217-.913.076-1.916.482-1.003 2.638.914 2.156 15.472 33.528 15.878 34.44.406.914 1.46 2.395 3.93 1.802 2.532-.61 11.31-2.9 16.104-4.155 2.534 4.588 7.702 13.897 8.658 15.23 1.276 1.78 2.154 1.487 4.113.893 1.53-.463 23.933-8.52 24.942-8.935 1.01-.415 1.632-.712.95-1.72-.502-.743-6.412-8.66-9.508-12.802 2.12-.565 9.66-2.572 10.463-2.79.936-.254 1.064-.714.556-1.285-.508-.572-7.533-9.365-8.77-10.857z"/></g></svg>
